packages/ffe-icons/icons/open/300/md/dashboard.svg

<svg xmlns="http://www.w3.org/2000/svg" height="24" viewBox="0 -960 960 960" width="24"><path d="M530.001-636.344v-147.311q0-15.651 10.427-25.997 10.428-10.347 25.843-10.347h217.621q15.414 0 25.76 10.347 10.347 10.346 10.347 25.997v147.311q0 15.652-10.428 25.998Q799.143-600 783.728-600h-217.62q-15.415 0-25.761-10.346t-10.346-25.998Zm-390 140.342v-288.004q0-15.3 10.428-25.646 10.428-10.347 25.843-10.347h217.62q15.415 0 25.761 10.351 10.346 10.35 10.346 25.65v288.004q0 15.3-10.427 25.646-10.428 10.347-25.843 10.347H176.108q-15.414 0-25.76-10.351-10.347-10.35-10.347-25.65Zm390 320v-288.004q0-15.3 10.427-25.646 10.428-10.347 25.843-10.347h217.621q15.414 0 25.76 10.351 10.347 10.35 10.347 25.65v288.004q0 15.3-10.428 25.646-10.428 10.347-25.843 10.347h-217.62q-15.415 0-25.761-10.351-10.346-10.35-10.346-25.65Zm-390-.343v-147.311q0-15.652 10.428-25.998Q160.857-360 176.272-360h217.62q15.415 0 25.761 10.346t10.346 25.998v147.311q0 15.651-10.427 25.997-10.428 10.347-25.843 10.347H176.108q-15.414 0-25.76-10.347-10.347-10.346-10.347-25.997ZM200-520h170.001v-240H200v240Zm389.999 320H760v-240H589.999v240Zm0-459.999H760V-760H589.999v100.001ZM200-200h170.001v-100.001H200V-200Zm170.001-320Zm219.998-139.999Zm0 219.999ZM370.001-300.001Z"/></svg>

<svg xmlns="http://www.w3.org/2000/svg" height="24" viewBox="0 -960 960 960" width="24"><path d="M530-636.34v-147.31q0-15.66 10.43-26Q550.86-820 566.27-820h217.62q15.42 0 25.76 10.35 10.35 10.34 10.35 26v147.31q0 15.65-10.43 25.99Q799.14-600 783.73-600H566.11q-15.42 0-25.76-10.35Q530-620.69 530-636.34ZM140-496v-288.01q0-15.3 10.43-25.64Q160.86-820 176.27-820h217.62q15.42 0 25.76 10.35Q430-799.3 430-784v288.01q0 15.3-10.43 25.64Q409.14-460 393.73-460H176.11q-15.42 0-25.76-10.35Q140-480.7 140-496Zm390 320v-288.01q0-15.3 10.43-25.64Q550.86-500 566.27-500h217.62q15.42 0 25.76 10.35Q820-479.3 820-464v288.01q0 15.3-10.43 25.64Q799.14-140 783.73-140H566.11q-15.42 0-25.76-10.35Q530-160.7 530-176Zm-390-.35v-147.31q0-15.65 10.43-25.99Q160.86-360 176.27-360h217.62q15.42 0 25.76 10.35Q430-339.31 430-323.66v147.31q0 15.66-10.43 26Q409.14-140 393.73-140H176.11q-15.42 0-25.76-10.35-10.35-10.34-10.35-26ZM200-520h170v-240H200v240Zm390 320h170v-240H590v240Zm0-460h170v-100H590v100ZM200-200h170v-100H200v100Zm170-320Zm220-140Zm0 220ZM370-300Z"/></svg>
